images/linkedin.svg

<svg height="512pt" viewBox="0 0 512 512" width="512pt" xmlns="http://www.w3.org/2000/svg"><path d="m256 0c-141.363281 0-256 114.636719-256 256s114.636719 256 256 256 256-114.636719 256-256-114.636719-256-256-256zm-74.390625 387h-62.347656v-187.574219h62.347656zm-31.171875-213.1875h-.40625c-20.921875 0-34.453125-14.402344-34.453125-32.402344 0-18.40625 13.945313-32.410156 35.273437-32.410156 21.328126 0 34.453126 14.003906 34.859376 32.410156 0 18-13.53125 32.402344-35.273438 32.402344zm255.984375 213.1875h-62.339844v-100.347656c0-25.21875-9.027343-42.417969-31.585937-42.417969-17.222656 0-27.480469 11.601563-31.988282 22.800781-1.648437 4.007813-2.050781 9.609375-2.050781 15.214844v104.75h-62.34375s.816407-169.976562 0-187.574219h62.34375v26.558594c8.285157-12.78125 23.109375-30.960937 56.1875-30.960937 41.019531 0 71.777344 26.808593 71.777344 84.421874zm0 0"/></svg>

<svg xmlns="http://www.w3.org/2000/svg" viewBox="0 0 512 512"><defs><style>.cls-1{fill:#c6ae75;}</style></defs><title>Asset 1</title><g id="Layer_2" data-name="Layer 2"><g id="Layer_1-2" data-name="Layer 1"><path class="cls-1" d="M256,0C114.64,0,0,114.64,0,256S114.64,512,256,512,512,397.36,512,256,397.36,0,256,0ZM181.61,387H119.26V199.43h62.35ZM150.44,173.81H150c-20.92,0-34.45-14.4-34.45-32.4,0-18.41,13.94-32.41,35.27-32.41s34.45,14,34.86,32.41C185.71,159.41,172.18,173.81,150.44,173.81ZM406.42,387H344.08V286.65c0-25.22-9-42.42-31.58-42.42-17.23,0-27.48,11.61-32,22.81-1.65,4-2.05,9.6-2.05,15.21V387H216.11s.82-170,0-187.57h62.35V226c8.28-12.78,23.11-31,56.18-31,41,0,71.78,26.81,71.78,84.43Z"/></g></g></svg>
